icons/paypal-line.svg

<svg xmlns="http://www.w3.org/2000/svg" width="24" height="24" fill="none"><g clip-path="url(#a)"><g><path fill="#121212" d="M8.49475 20.667H10.0458L10.5838 17.291C10.6883 16.6315 11.0246 16.0308 11.5324 15.5971C12.0402 15.1634 12.686 14.9251 13.3538 14.925H13.8538C16.5308 14.925 17.9138 13.942 18.4038 11.422C18.6118 10.356 18.5208 9.692 18.2328 9.32C17.0258 12.374 14.4428 13.48 11.2708 13.48H10.3868C10.0028 13.48 9.59275 13.689 9.53475 14.06L8.49475 20.667ZM3.55075 20.373C3.47114 20.373 3.39248 20.3557 3.3202 20.3223C3.24791 20.289 3.1837 20.2404 3.132 20.1798C3.0803 20.1193 3.04233 20.0483 3.02071 19.9716C2.99909 19.895 2.99433 19.8146 3.00675 19.736L5.67975 2.776C5.71407 2.55943 5.82462 2.36224 5.99146 2.21997C6.15831 2.07769 6.37048 1.99968 6.58975 2H13.0138C15.2258 2 16.9558 2.467 17.9128 3.558C18.7828 4.548 19.0358 5.642 18.7838 7.25C19.1438 7.441 19.4518 7.675 19.6998 7.956C20.5178 8.889 20.6778 10.216 20.3678 11.806C19.6278 15.611 17.0918 16.926 13.8538 16.926H13.3538C13.1623 16.9263 12.9772 16.9948 12.8316 17.1192C12.6861 17.2436 12.5897 17.4159 12.5598 17.605L11.8578 21.988C11.828 22.1772 11.7316 22.3496 11.5861 22.474C11.4405 22.5985 11.2553 22.6669 11.0638 22.667H6.71975C6.64999 22.667 6.58107 22.6519 6.51771 22.6227C6.45436 22.5934 6.39808 22.5509 6.35276 22.4978C6.30743 22.4448 6.27412 22.3826 6.25513 22.3155C6.23614 22.2484 6.23192 22.1779 6.24275 22.109L6.51675 20.373H3.54975H3.55075ZM10.3868 11.479H11.2708C14.4608 11.479 16.1658 10.267 16.7538 7.25C16.7738 7.149 16.7908 7.047 16.8068 6.941C16.9728 5.881 16.8568 5.388 16.4088 4.878C15.9438 4.348 14.8058 4 13.0128 4H7.51275L5.24575 18.373H6.80675L7.53675 13.745L7.54375 13.746C7.69061 13.1019 8.05192 12.5268 8.56845 12.1149C9.08498 11.703 9.72611 11.4788 10.3868 11.479Z"/></g></g><defs><clipPath id="a"><rect width="24" height="24" fill="white"/></clipPath></defs></svg>

<svg width="24" height="24" fill="none" xmlns="http://www.w3.org/2000/svg"><g clip-path="url(#a)"><path d="M8.495 20.667h1.55l.539-3.376a2.805 2.805 0 0 1 2.77-2.366h.5c2.677 0 4.06-.983 4.55-3.503.208-1.066.117-1.73-.171-2.102-1.207 3.054-3.79 4.16-6.962 4.16h-.884c-.384 0-.794.209-.852.58l-1.04 6.607Zm-4.944-.294a.55.55 0 0 1-.544-.637L5.68 2.776A.92.92 0 0 1 6.59 2h6.424c2.212 0 3.942.467 4.899 1.558.87.99 1.123 2.084.87 3.692.36.191.669.425.917.706.818.933.978 2.26.668 3.85-.74 3.805-3.276 5.12-6.514 5.12h-.5a.806.806 0 0 0-.794.679l-.702 4.383a.804.804 0 0 1-.794.679H6.72a.483.483 0 0 1-.477-.558l.274-1.736H3.55Zm6.836-8.894h.884c3.19 0 4.895-1.212 5.483-4.229.02-.101.037-.203.053-.309.166-1.06.05-1.553-.398-2.063-.465-.53-1.603-.878-3.396-.878h-5.5L5.246 18.373h1.56l.73-4.628.008.001a2.915 2.915 0 0 1 2.843-2.267Z" /></g><defs><clipPath id="a"><path fill="#fff" d="M0 0h24v24H0z"/></clipPath></defs></svg>
